assets/flags/brazil.svg

<svg version="1" xmlns="http://www.w3.org/2000/svg" xmlns:xlink="http://www.w3.org/1999/xlink" width="720" height="504" viewBox="-2100 -1470 4200 2940"><defs><path id="i" d="M-31.5 0h33a30 30 0 0 0 30-30v-10a30 30 0 0 0-30-30h-33zm13-13h19a19 19 0 0 0 19-19v-6a19 19 0 0 0-19-19h-19z" fill-rule="evenodd"/><path id="j" d="M-31.5 0h63v-13h-51v-18h40v-12h-40v-14h48v-13h-60z"/><path id="l" d="M-26.25 0h52.5v-12h-40.5v-16h33v-12h-33v-11h39.25v-12h-51.25z"/><g id="m"><clipPath id="b"><path d="M-31.5 0v-70h63v70zm31.5-47v12h31.5v-12z"/></clipPath><use xlink:href="#a" clip-path="url(#b)"/><path d="M5-35h26.5v10h-26.5zM21.5-35h10v35h-10z"/></g><path id="k" d="M-31.5 0h12v-48l14 48h11l14-48v48h12v-70h-17.5l-14 48-14-48h-17.5z"/><path id="a" d="M0 0a31.5 35 0 0 0 0-70 31.5 35 0 0 0 0 70m0-13a18.5 22 0 0 0 0-44 18.5 22 0 0 0 0 44" fill-rule="evenodd"/><path id="c" d="M-31.5 0h13v-26h28a22 22 0 0 0 0-44h-40zm13-39h27a9 9 0 0 0 0-18h-27z" fill-rule="evenodd"/><g id="h"><use xlink:href="#c"/><path d="M28 0c0-10 0-32-15-32h-19c22 0 22 22 22 32"/></g><path id="n" d="M-15.75-22c0 7 6.75 10.5 16.75 10.5s14.74-3.25 14.75-7.75c0-14.25-46.75-5.25-46.5-30.25.25-21.5 24.75-20.5 33.75-20.5s26 4 25.75 21.25h-15.25c0-7.5-7-10.25-15-10.25-7.75 0-13.25 1.25-13.25 8.5-.25 11.75 46.25 4 46.25 28.75 0 18.25-18 21.75-31.5 21.75-11.5 0-31.55-4.5-31.5-22z"/><g id="f" fill="#fff"><g id="e"><path id="d" d="M.309-.951l-.309.951.476.155"/><use xlink:href="#d" transform="scale(-1 1)"/></g><use xlink:href="#e" transform="rotate(72)"/><use xlink:href="#e" transform="rotate(-72)"/><use xlink:href="#e" transform="rotate(144)"/><use xlink:href="#e" transform="rotate(-144)"/></g><use id="o" xlink:href="#f" transform="scale(31.5)"/><use id="p" xlink:href="#f" transform="scale(26.25)"/><use id="r" xlink:href="#f" transform="scale(21)"/><use id="q" xlink:href="#f" transform="scale(15)"/><use id="s" xlink:href="#f" transform="scale(10.5)"/></defs><rect x="-50%" y="-50%" width="100%" height="100%" fill="#009b3a"/><path d="M-1743 0l1743 1113 1743-1113-1743-1113z" fill="#fedf00"/><circle r="735" fill="#002776"/><clipPath id="g"><circle r="735"/></clipPath><path d="M-2205 1470a1785 1785 0 0 1 3570 0h-105a1680 1680 0 1 0-3360 0z" clip-path="url(#g)" fill="#fff"/><g fill="#009b3a" transform="translate(-420 1470)"><use xlink:href="#a" y="-1697.5" transform="rotate(-7)"/><use xlink:href="#h" y="-1697.5" transform="rotate(-4)"/><use xlink:href="#i" y="-1697.5" transform="rotate(-1)"/><use xlink:href="#j" y="-1697.5" transform="rotate(2)"/><use xlink:href="#k" y="-1697.5" transform="rotate(5)"/><use xlink:href="#l" y="-1697.5" transform="rotate(9.75)"/><use xlink:href="#c" y="-1697.5" transform="rotate(14.5)"/><use xlink:href="#h" y="-1697.5" transform="rotate(17.5)"/><use xlink:href="#a" y="-1697.5" transform="rotate(20.5)"/><use xlink:href="#m" y="-1697.5" transform="rotate(23.5)"/><use xlink:href="#h" y="-1697.5" transform="rotate(26.5)"/><use xlink:href="#j" y="-1697.5" transform="rotate(29.5)"/><use xlink:href="#n" y="-1697.5" transform="rotate(32.5)"/><use xlink:href="#n" y="-1697.5" transform="rotate(35.5)"/><use xlink:href="#a" y="-1697.5" transform="rotate(38.5)"/></g><use xlink:href="#o" x="-600" y="-132"/><use xlink:href="#o" x="-535" y="177"/><use xlink:href="#p" x="-625" y="243"/><use xlink:href="#q" x="-463" y="132"/><use xlink:href="#p" x="-382" y="250"/><use xlink:href="#r" x="-404" y="323"/><use xlink:href="#o" x="228" y="-228"/><use xlink:href="#o" x="515" y="258"/><use xlink:href="#r" x="617" y="265"/><use xlink:href="#p" x="545" y="323"/><use xlink:href="#p" x="368" y="477"/><use xlink:href="#r" x="367" y="551"/><use xlink:href="#r" x="441" y="419"/><use xlink:href="#p" x="500" y="382"/><use xlink:href="#r" x="365" y="405"/><use xlink:href="#p" x="-280" y="30"/><use xlink:href="#r" x="200" y="-37"/><use xlink:href="#o" y="330"/><use xlink:href="#p" x="85" y="184"/><use xlink:href="#p" y="118"/><use xlink:href="#r" x="-74" y="184"/><use xlink:href="#q" x="-37" y="235"/><use xlink:href="#p" x="220" y="495"/><use xlink:href="#r" x="283" y="430"/><use xlink:href="#r" x="162" y="412"/><use xlink:href="#o" x="-295" y="390"/><use xlink:href="#s" y="575"/></svg>

<?xml version="1.0" encoding="UTF-8"?>
<svg version="1.0" xmlns="http://www.w3.org/2000/svg" xmlns:xlink="http://www.w3.org/1999/xlink" width="720" height="504" viewBox="-2100 -1470 4200 2940">
	<defs>
		<path id="D" d="M -31.5,0 h 33 a 30 30 0 0 0 30,-30 v -10 a 30 30 0 0 0 -30,-30 H -31.5 z M -18.5,-13 h 19 a 19 19 0 0 0 19,-19 v -6 a 19 19 0 0 0 -19,-19 H -18.5 z" fill-rule="evenodd"/>
		<path id="E" d="M 0,0 h 63 v -13 H 12 v -18 h 40 v -12 h -40 v -14 H 60 v -13 H 0 z" transform="translate(-31.5)"/>
		<path id="e" d="M -26.25,0 h 52.5 v -12 h -40.5 v -16 h 33 v -12 h -33 v -11 H 25 v -12 H -26.25 z"/>
		<g id="G">
			<clipPath id="gcut">
				<path d="M -31.5,0 v -70 h 63 v 70 z M 0,-47 v 12 h 31.5 v -12 z"/>
			</clipPath>
			<use xlink:href="#O" clip-path="url(#gcut)"/>
			<rect x="5" y="-35" width="26.5" height="10"/>
			<rect x="21.5" y="-35" width="10" height="35"/>
		</g>
		<path id="M" d="M -31.5,0 h 12 v -48 l 14,48 h 11 l 14,-48 V 0 h 12 V -70 h -17.5 l -14,48 l -14,-48 H -31.5 z"/>
		<path id="O" d="M 0,0 a 31.5 35 0 0 0 0,-70 a 31.5 35 0 0 0 0,70 M 0,-13 a 18.5 22 0 0 0 0,-44 a 18.5 22 0 0 0 0,44" fill-rule="evenodd"/>
		<path id="P" d="M -31.5,0 h 13 v -26 h 28 a 22 22 0 0 0 0,-44 h -40 z M -18.5,-39 h 27 a 9 9 0 0 0 0,-18 h -27 z" fill-rule="evenodd"/>
		<g id="R">
			<use xlink:href="#P"/>
			<path d="M 28,0 c 0,-10 0,-32 -15,-32 h -19 c 22,0 22,22 22,32"/>
		</g>
		<path id="S" d="M -15.75,-22 C -15.75,-15 -9,-11.5 1,-11.5 C 11,-11.5 15.74,-14.75 15.75,-19.25 C 15.75,-33.5 -31,-24.5 -30.75,-49.5 C -30.5,-71 -6,-70 3,-70 C 12,-70 29,-66 28.75,-48.75 L 13.5,-48.75 C 13.5,-56.25 6.5,-59 -1.5,-59 C -9.25,-59 -14.75,-57.75 -14.75,-50.5 C -15,-38.75 31.5,-46.5 31.5,-21.75 C 31.5,-3.5 13.5,0 0,0 C -11.5,0 -31.55,-4.5 -31.5,-22 z"/>
		<g id="star" fill="#fff">
			<g id="c">
				<path id="t" d="M 0,-1 v 1 h .5" transform="rotate(18 0,-1)"/>
				<use xlink:href="#t" transform="scale(-1,1)"/>
			</g>
			<use xlink:href="#c" transform="rotate(72)"/>
			<use xlink:href="#c" transform="rotate(-72)"/>
			<use xlink:href="#c" transform="rotate(144)"/>
			<use xlink:href="#c" transform="rotate(-144)"/>
		</g>
		<use id="star1" xlink:href="#star" transform="scale(31.5)"/>
		<use id="star2" xlink:href="#star" transform="scale(26.25)"/>
		<use id="star3" xlink:href="#star" transform="scale(21)"/>
		<use id="star4" xlink:href="#star" transform="scale(15)"/>
		<use id="star5" xlink:href="#star" transform="scale(10.5)"/>
	</defs>
	<rect x="-50%" y="-50%" width="100%" height="100%" fill="#009b3a"/>
	<path d="M -1743,0 0,1113 1743,0 0,-1113 z" fill="#fedf00"/>
	<circle r="735" fill="#002776"/>
	<clipPath id="band">
		<circle r="735"/>
	</clipPath>
	<path d="M -2205,1470 a 1785 1785 0 0 1 3570,0 h -105 a 1680 1680 0 1 0 -3360,0 z" clip-path="url(#band)" fill="#fff"/>
	<g fill="#009b3a" transform="translate(-420,1470)">
		<use xlink:href="#O" y="-1697.5" transform="rotate(-7)"/>
		<use xlink:href="#R" y="-1697.5" transform="rotate(-4)"/>
		<use xlink:href="#D" y="-1697.5" transform="rotate(-1)"/>
		<use xlink:href="#E" y="-1697.5" transform="rotate(2)"/>
		<use xlink:href="#M" y="-1697.5" transform="rotate(5)"/>
		<use xlink:href="#e" y="-1697.5" transform="rotate(9.75)"/>
		<use xlink:href="#P" y="-1697.5" transform="rotate(14.5)"/>
		<use xlink:href="#R" y="-1697.5" transform="rotate(17.5)"/>
		<use xlink:href="#O" y="-1697.5" transform="rotate(20.5)"/>
		<use xlink:href="#G" y="-1697.5" transform="rotate(23.5)"/>
		<use xlink:href="#R" y="-1697.5" transform="rotate(26.5)"/>
		<use xlink:href="#E" y="-1697.5" transform="rotate(29.5)"/>
		<use xlink:href="#S" y="-1697.5" transform="rotate(32.5)"/>
		<use xlink:href="#S" y="-1697.5" transform="rotate(35.5)"/>
		<use xlink:href="#O" y="-1697.5" transform="rotate(38.5)"/>
	</g>
	<use id="αCMi" xlink:href="#star1" x="-600" y="-132"/>
	<use id="αCMa" xlink:href="#star1" x="-535" y="177"/>
	<use id="βCMa" xlink:href="#star2" x="-625" y="243"/>
	<use id="γCMa" xlink:href="#star4" x="-463" y="132"/>
	<use id="δCMa" xlink:href="#star2" x="-382" y="250"/>
	<use id="εCMa" xlink:href="#star3" x="-404" y="323"/>
	<use id="αVir" xlink:href="#star1" x="228" y="-228"/>
	<use id="αSco" xlink:href="#star1" x="515" y="258"/>
	<use id="βSco" xlink:href="#star3" x="617" y="265"/>
	<use id="εSco" xlink:href="#star2" x="545" y="323"/>
	<use id="θSco" xlink:href="#star2" x="368" y="477"/>
	<use id="ιSco" xlink:href="#star3" x="367" y="551"/>
	<use id="κSco" xlink:href="#star3" x="441" y="419"/>
	<use id="λSco" xlink:href="#star2" x="500" y="382"/>
	<use id="μSco" xlink:href="#star3" x="365" y="405"/>
	<use id="αHya" xlink:href="#star2" x="-280" y="30"/>
	<use id="γHya" xlink:href="#star3" x="200" y="-37"/>
	<use id="αCru" xlink:href="#star1" y="330"/>
	<use id="βCru" xlink:href="#star2" x="85" y="184"/>
	<use id="γCru" xlink:href="#star2" y="118"/>
	<use id="δCru" xlink:href="#star3" x="-74" y="184"/>
	<use id="εCru" xlink:href="#star4" x="-37" y="235"/>
	<use id="αTrA" xlink:href="#star2" x="220" y="495"/>
	<use id="βTrA" xlink:href="#star3" x="283" y="430"/>
	<use id="γTrA" xlink:href="#star3" x="162" y="412"/>
	<use id="αCar" xlink:href="#star1" x="-295" y="390"/>
	<use id="σOct" xlink:href="#star5" y="575"/>
</svg>
